logos/google-pay.svg

<?xml version="1.0" encoding="UTF-8"?>
<svg width="512px" height="93px" viewBox="0 0 512 93" version="1.1" xmlns="http://www.w3.org/2000/svg" xmlns:xlink="http://www.w3.org/1999/xlink" preserveAspectRatio="xMidYMid">
    <g>
				<path d="M482.684036,37.1058143 L493.629766,63.5409278 L493.758919,63.5409278 L504.446342,37.1058143 L511.999495,37.1058143 L488.957189,90.1681566 L481.789189,90.1681566 L490.366342,71.606081 L475.195459,37.1058143 L482.684036,37.1058143 Z M457.84973,35.889699 C462.96973,35.889699 467.001153,37.2338143 469.946306,39.9861602 C472.891459,42.7385062 474.362883,46.4509675 474.362883,51.251544 L474.362883,73.9741963 L467.769153,73.9741963 L467.769153,68.8535044 L467.450883,68.8535044 C464.570306,73.0781963 460.792576,75.1903116 456.055423,75.1903116 C452.024,75.1903116 448.631423,73.9741963 445.88,71.6058503 C443.12627,69.1736197 441.781694,66.1652738 441.781694,62.5808125 C441.781694,58.8044666 443.190847,55.7320053 446.136,53.4916593 C449.016576,51.251544 452.856576,50.0993134 457.656,50.0993134 C461.752,50.0993134 465.144576,50.867544 467.83373,52.3396593 L467.83373,50.7393134 C467.83373,48.3070828 466.874306,46.3229675 464.953153,44.5946215 C463.034306,42.9303909 460.792576,42.0982756 458.232576,42.0982756 C454.392576,42.0982756 451.320576,43.6986215 449.078847,46.9629675 L442.999423,43.1225062 C446.327423,38.3219296 451.320576,35.889699 457.84973,35.889699 Z M422.899964,20.0799462 C427.57254,20.0799462 431.541694,21.6161307 434.805117,24.7525458 C438.133117,27.8888918 439.733694,31.6652377 439.733694,36.0818143 C439.733694,40.6263909 438.06854,44.4668521 434.805117,47.4751981 C431.603964,50.5476593 427.637117,52.08389 422.899964,52.08389 L411.506811,52.08389 L411.506811,73.9103116 L404.592504,73.9103116 L404.592504,20.0799462 L422.899964,20.0799462 Z M458.744576,55.53989 C455.928576,55.53989 453.624576,56.2440053 451.703423,57.5881206 C449.846847,58.9963512 448.887423,60.6605819 448.887423,62.6449278 C448.887423,64.4371584 449.655423,65.9731584 451.191423,67.1253891 C452.727423,68.3415044 454.519423,68.9176197 456.567423,68.9176197 C459.448,68.9176197 462.072576,67.8295044 464.376576,65.7171584 C466.680576,63.5409278 467.769153,61.0445819 467.769153,58.1003512 C465.594306,56.3720053 462.584576,55.53989 458.744576,55.53989 Z M423.091387,26.8007765 L411.506811,26.8007765 L411.506811,45.5549675 L423.091387,45.5549675 C425.845117,45.5549675 428.149117,44.6589675 429.941117,42.8026215 C431.797694,40.9465062 432.69254,38.7702756 432.69254,36.2098143 C432.69254,33.713699 431.797694,31.5372377 429.941117,29.6811224 C428.149117,27.7608918 425.845117,26.8007765 423.091387,26.8007765 Z" fill="#5F6368"></path>
				<path d="M306.91582,35.9538143 C311.588396,35.9538143 315.301549,38.0020449 317.222703,40.3062756 L317.540973,40.3062756 L317.540973,37.1060449 L325.735279,37.1060449 L325.735279,72.3101963 C325.735279,86.7758107 317.222703,92.7286179 307.109549,92.7286179 C297.635243,92.7286179 291.938666,86.327926 289.761513,81.1433494 L297.252396,78.0067729 C298.594666,81.2072341 301.860396,84.9838107 307.109549,84.9838107 C313.574126,84.9838107 317.540973,80.9512341 317.540973,73.4624269 L317.540973,70.6459657 L317.222703,70.6459657 C315.301549,73.0143116 311.588396,75.1264269 306.91582,75.1264269 C297.123243,75.1264269 288.163243,66.6133891 288.163243,55.6042359 C288.163243,44.5309675 297.123243,35.9538143 306.91582,35.9538143 Z M363.245045,36.0179296 C373.422775,36.0179296 378.351351,44.0830828 380.014198,48.4994287 L380.911351,50.7397747 L354.732468,61.5570431 C356.715892,65.4616197 359.852468,67.5098503 364.204468,67.5098503 C368.558775,67.3818503 371.630775,65.2695044 373.870198,62.0051584 L380.526198,66.4856197 C378.351351,69.686081 373.166775,75.1907729 364.204468,75.1907729 C353.067315,75.1907729 344.810739,66.6136197 344.810739,55.6044666 C344.810739,43.9548521 353.196468,36.0179296 363.245045,36.0179296 Z M171.608519,14.3198078 C180.889557,14.3198078 187.482364,17.968246 192.41094,22.7047765 L186.522248,28.5934684 C182.937787,25.2652377 178.137211,22.6408918 171.544403,22.6408918 C159.318904,22.6408918 149.717751,32.4980449 149.717751,44.723544 C149.717751,56.9488125 159.25502,66.8061963 171.544403,66.8061963 C179.481326,66.8061963 184.025903,63.605735 186.906248,60.7253891 C189.274594,58.3570431 190.810825,54.9646972 191.450825,50.2921206 L171.352519,50.2921206 L171.352519,41.9711981 L199.515748,41.9711981 C199.835863,43.4433134 199.963863,45.235544 199.963863,47.1557747 C199.963863,53.3645819 198.235517,61.1093891 192.79494,66.614081 C187.418248,72.1826575 180.633557,75.1271188 171.608519,75.1271188 C154.838443,75.1271188 140.756829,61.4933891 140.756829,44.723544 C140.756829,27.9534684 154.838443,14.3198078 171.608519,14.3198078 Z M222.497167,35.9538143 C233.314666,35.9538143 242.14782,44.2108521 242.14782,55.5401206 C242.14782,66.8055044 233.314666,75.1264269 222.497167,75.1264269 C211.679899,75.1264269 202.846746,66.8055044 202.846746,55.5401206 C202.846746,44.2108521 211.679899,35.9538143 222.497167,35.9538143 Z M265.252396,35.9538143 C276.068973,35.9538143 284.902126,44.2108521 284.902126,55.5401206 C284.902126,66.8055044 276.068973,75.1264269 265.252396,75.1264269 C254.433513,75.1264269 245.60036,66.8055044 245.60036,55.5401206 C245.60036,44.2108521 254.433513,35.9538143 265.252396,35.9538143 Z M340.523315,16.368246 L340.523315,73.9112341 L331.946162,73.9112341 L331.946162,16.368246 L340.523315,16.368246 Z M222.561283,43.6988521 C216.672591,43.6988521 211.551899,48.4994287 211.551899,55.5401206 C211.551899,62.5169278 216.672591,67.3816197 222.561283,67.3816197 C228.449975,67.3816197 233.570666,62.5169278 233.570666,55.5401206 C233.570666,48.4994287 228.449975,43.6988521 222.561283,43.6988521 Z M265.252396,43.6988521 C259.36209,43.6988521 254.24209,48.4994287 254.24209,55.5401206 C254.24209,62.5169278 259.36209,67.3816197 265.252396,67.3816197 C271.140396,67.3816197 276.260396,62.5169278 276.260396,55.5401206 C276.260396,48.4994287 271.140396,43.6988521 265.252396,43.6988521 Z M307.748396,43.6347368 C301.79582,43.6347368 296.867243,48.6913134 296.867243,55.6042359 C296.867243,62.4530431 301.860396,67.3816197 307.748396,67.3816197 C313.574126,67.3816197 318.182126,62.4530431 318.182126,55.6042359 C318.182126,48.6913134 313.574126,43.6347368 307.748396,43.6347368 Z M363.501045,43.5069675 C359.149045,43.5069675 353.067315,47.4113134 353.323315,54.9642359 L370.798198,47.6673134 C369.838775,45.2350828 366.958198,43.5069675 363.501045,43.5069675 Z" fill="#5F6368"></path>
				<path d="M95.3629548,17.2958655 C85.0064863,11.3175505 71.7634449,14.8699772 65.77858,25.2264918 L50.6921079,51.3606323 C46.3267313,58.9073278 51.9465079,61.5443584 58.2129728,65.3015621 L72.7297872,73.6801422 C77.6456791,76.5157458 83.9248286,74.8323729 86.7604322,69.9229386 L102.26942,43.0653098 C107.479596,34.040272 104.387993,22.5062035 95.3629548,17.2958655 Z" fill="#EA4335"></path>
				<path d="M78.2923674,28.1128341 L63.775553,19.7343231 C55.7618304,15.2858042 51.2237115,14.9913581 47.9335349,20.2207923 L26.523171,57.3005242 C20.5447638,67.650535 24.103625,80.8873494 34.4536358,86.8528413 C43.4786737,92.0630179 55.0129728,88.9714143 60.2231494,79.9463765 L82.043344,42.1497062 C84.8916322,37.2340449 83.2082593,30.9484377 78.2923674,28.1128341 Z" fill="#FBBC04"></path>
				<path d="M81.0864575,9.05160457 L70.8900467,3.16291268 C59.6119782,-3.34667377 45.1911061,0.512985186 38.6815566,11.7911275 L19.2679695,45.4142828 C16.4004236,50.374917 18.1030312,56.7244089 23.0637115,59.5856125 L34.4826953,66.1784197 C40.1216142,69.4365386 47.3288214,67.5033927 50.5869403,61.8642431 L72.7655349,23.4534035 C77.3613115,15.4971772 87.5321223,12.7704543 95.4881872,17.3662078 L81.0864575,9.05160457 Z" fill="#34A853"></path>
				<path d="M41.4394376,21.4111923 L30.4173692,15.0616312 C25.5014773,12.2325084 19.22242,13.9094929 16.3868856,18.8124925 L3.16291728,41.6633062 C-3.34667839,52.909317 0.512987482,67.2983621 11.7911321,73.7887693 L20.1825353,78.6211729 L30.3597115,84.4842648 L34.7762881,87.025353 C26.9353079,81.7768918 24.4454196,71.2603657 29.2395385,62.9777278 L32.6639421,57.0634359 L45.2030989,35.3968413 C48.0322449,30.5067801 46.3488719,24.2403152 41.4394376,21.4111923 Z" fill="#4285F4"></path>
    </g>
</svg>

<svg width="512" height="93" xmlns="http://www.w3.org/2000/svg" preserveAspectRatio="xMidYMid">
	<path d="M482.684 37.106 493.63 63.54h.129l10.687-26.435H512l-23.042 53.062h-7.168l8.577-18.562-15.17-34.5h7.488ZM457.85 35.89c5.12 0 9.151 1.344 12.096 4.096 2.945 2.753 4.417 6.465 4.417 11.266v22.722h-6.594v-5.12h-.318c-2.88 4.224-6.658 6.336-11.396 6.336-4.031 0-7.424-1.216-10.175-3.584-2.754-2.432-4.098-5.44-4.098-9.025 0-3.777 1.409-6.849 4.354-9.09 2.88-2.24 6.72-3.392 11.52-3.392 4.096 0 7.489.769 10.178 2.24v-1.6c0-2.432-.96-4.416-2.88-6.144-1.92-1.665-4.161-2.497-6.721-2.497-3.84 0-6.912 1.6-9.154 4.865l-6.08-3.84c3.328-4.801 8.322-7.233 14.85-7.233ZM422.9 20.08c4.673 0 8.642 1.536 11.905 4.673 3.328 3.136 4.929 6.912 4.929 11.329 0 4.544-1.665 8.385-4.929 11.393-3.201 3.073-7.168 4.609-11.905 4.609h-11.393V73.91h-6.914V20.08H422.9Zm35.845 35.46c-2.816 0-5.12.704-7.042 2.048-1.856 1.408-2.816 3.073-2.816 5.057 0 1.792.768 3.328 2.304 4.48 1.536 1.217 3.328 1.793 5.376 1.793 2.881 0 5.506-1.088 7.81-3.2 2.304-2.177 3.392-4.673 3.392-7.618-2.175-1.728-5.184-2.56-9.024-2.56ZM423.09 26.8h-11.584v18.755h11.584c2.754 0 5.058-.896 6.85-2.752 1.857-1.856 2.752-4.033 2.752-6.593 0-2.496-.895-4.673-2.752-6.529-1.792-1.92-4.096-2.88-6.85-2.88Z" fill="#5F6368"/>
	<path d="M306.916 35.954c4.672 0 8.386 2.048 10.307 4.352h.318v-3.2h8.194V72.31c0 14.466-8.512 20.419-18.625 20.419-9.475 0-15.171-6.401-17.348-11.586l7.49-3.136c1.343 3.2 4.608 6.977 9.858 6.977 6.464 0 10.431-4.033 10.431-11.522v-2.816h-.318c-1.921 2.368-5.635 4.48-10.307 4.48-9.793 0-18.753-8.513-18.753-19.522 0-11.073 8.96-19.65 18.753-19.65Zm56.329.064c10.178 0 15.106 8.065 16.77 12.481l.896 2.24-26.179 10.818c1.984 3.905 5.12 5.953 9.472 5.953 4.355-.128 7.427-2.24 9.666-5.505l6.656 4.48c-2.175 3.201-7.36 8.706-16.322 8.706-11.137 0-19.393-8.577-19.393-19.587 0-11.65 8.385-19.586 18.434-19.586ZM171.609 14.32c9.28 0 15.873 3.648 20.802 8.385l-5.889 5.888c-3.584-3.328-8.385-5.952-14.978-5.952-12.225 0-21.826 9.857-21.826 22.083 0 12.225 9.537 22.082 21.826 22.082 7.937 0 12.482-3.2 15.362-6.08 2.369-2.369 3.905-5.761 4.545-10.434h-20.098v-8.32h28.163c.32 1.471.448 3.264.448 5.184 0 6.209-1.728 13.953-7.17 19.458-5.376 5.569-12.16 8.513-21.185 8.513-16.77 0-30.852-13.634-30.852-30.403 0-16.77 14.081-30.404 30.852-30.404Zm50.888 21.634c10.818 0 19.65 8.257 19.65 19.586 0 11.266-8.832 19.586-19.65 19.586-10.817 0-19.65-8.32-19.65-19.586 0-11.33 8.833-19.586 19.65-19.586Zm42.755 0c10.817 0 19.65 8.257 19.65 19.586 0 11.266-8.833 19.586-19.65 19.586-10.818 0-19.652-8.32-19.652-19.586 0-11.33 8.834-19.586 19.652-19.586Zm75.271-19.586v57.543h-8.577V16.368h8.577Zm-117.962 27.33c-5.888 0-11.01 4.801-11.01 11.842 0 6.977 5.122 11.842 11.01 11.842 5.889 0 11.01-4.865 11.01-11.842 0-7.04-5.121-11.841-11.01-11.841Zm42.691 0c-5.89 0-11.01 4.801-11.01 11.842 0 6.977 5.12 11.842 11.01 11.842 5.888 0 11.008-4.865 11.008-11.842 0-7.04-5.12-11.841-11.008-11.841Zm42.496-.063c-5.952 0-10.88 5.056-10.88 11.97 0 6.848 4.992 11.777 10.88 11.777 5.826 0 10.434-4.929 10.434-11.778 0-6.913-4.608-11.97-10.434-11.97Zm55.753-.128c-4.352 0-10.434 3.904-10.178 11.457l17.475-7.297c-.96-2.432-3.84-4.16-7.297-4.16Z" fill="#5F6368"/>
	<path d="M95.363 17.296c-10.357-5.978-23.6-2.426-29.584 7.93L50.692 51.361c-4.365 7.546 1.255 10.183 7.521 13.94l14.517 8.38c4.916 2.835 11.195 1.151 14.03-3.758l15.51-26.858c5.21-9.025 2.118-20.559-6.907-25.77Z" fill="#EA4335"/>
	<path d="m78.292 28.113-14.516-8.379c-8.014-4.448-12.552-4.743-15.842.487L26.524 57.3c-5.98 10.35-2.42 23.586 7.93 29.552 9.025 5.21 20.559 2.118 25.77-6.907l21.82-37.796c2.848-4.916 1.164-11.202-3.752-14.037Z" fill="#FBBC04"/>
	<path d="M81.086 9.052 70.89 3.162C59.612-3.346 45.191.514 38.682 11.793L19.268 45.413c-2.868 4.96-1.165 11.31 3.796 14.172l11.419 6.592c5.639 3.259 12.846 1.325 16.104-4.314l22.179-38.41c4.595-7.957 14.766-10.684 22.722-6.088L81.086 9.052Z" fill="#34A853"/>
	<path d="m41.44 21.411-11.023-6.35c-4.916-2.828-11.195-1.152-14.03 3.751L3.163 41.663C-3.347 52.91.513 67.298 11.79 73.79l8.392 4.832 10.177 5.863 4.416 2.541c-7.84-5.248-10.33-15.765-5.536-24.047l3.424-5.915 12.54-21.666c2.828-4.89 1.145-11.157-3.765-13.986Z" fill="#4285F4"/>
</svg>
